projects/oblique/icons/Balance.svg

<?xml version="1.0" encoding="UTF-8"?><svg id="a" xmlns="http://www.w3.org/2000/svg" viewBox="0 0 24 24"><path d="M12.75,8.49365c1.14435-.28027,2.04205-1.17773,2.32208-2.32227h2.44348l-2.06439,5.79492-.04346.25195c0,1.74805,1.42236,3.1709,3.1709,3.1709s3.17139-1.42285,3.17139-3.1709l-2.12341-6.04688h.63464v-1.5h-5.18921c-.33917-1.38574-1.58313-2.4209-3.07202-2.4209s-2.73285,1.03516-3.07202,2.4209H3.73877v1.5h.61938l-2.0647,5.79492-.04346.25195c0,1.74805,1.42285,3.1709,3.17139,3.1709s3.1709-1.42285,3.1709-3.1709l-2.12311-6.04688h2.45874c.28003,1.14453,1.17773,2.04199,2.32208,2.32227v11.75684H3v1.5h18v-1.5h-8.25v-11.75684ZM18.57861,13.88916c-.88184,0-1.60596-.68652-1.66699-1.55273l1.66699-4.68066,1.66748,4.68066c-.06104.86621-.78564,1.55273-1.66748,1.55273ZM5.42139,13.88916c-.88184,0-1.60645-.68652-1.66748-1.55273l1.66748-4.68066,1.66699,4.68066c-.06104.86621-.78516,1.55273-1.66699,1.55273ZM10.32861,5.42139c0-.92188.75-1.6709,1.67139-1.6709s1.67139.74902,1.67139,1.6709c0,.9209-.75,1.6709-1.67139,1.6709s-1.67139-.75-1.67139-1.6709Z"/></svg>

<svg xmlns="http://www.w3.org/2000/svg" viewBox="0 0 24 24"><title>Balance</title><path d="M12.75,8.49365a3.17036,3.17036,0,0,0,2.32208-2.32226h2.44348l-2.06439,5.79492-.04346.252a3.17115,3.17115,0,0,0,6.34229,0L19.62659,6.17139h.63464v-1.5H15.072a3.15958,3.15958,0,0,0-6.144,0H3.73877v1.5h.61938L2.29346,11.96631l-.04346.252a3.17115,3.17115,0,0,0,6.34229,0L6.46918,6.17139H8.92792A3.17036,3.17036,0,0,0,11.25,8.49365V20.25049H3v1.5H21v-1.5H12.75Zm5.82861,5.39551a1.67347,1.67347,0,0,1-1.667-1.55273l1.667-4.68067,1.66748,4.68067A1.67391,1.67391,0,0,1,18.57861,13.88916Zm-13.15722,0a1.67391,1.67391,0,0,1-1.66748-1.55273L5.42139,7.65576l1.667,4.68067A1.67347,1.67347,0,0,1,5.42139,13.88916Zm4.90722-8.46777A1.67139,1.67139,0,1,1,12,7.09229,1.67283,1.67283,0,0,1,10.32861,5.42139Z" fill="#171717"/></svg>
